svg/fluentui-system-icons/ic_fluent_font_increase_20_filled.svg

<svg width="20" height="20" viewBox="0 0 20 20" fill="none" xmlns="http://www.w3.org/2000/svg">
<path d="M14.2382 4.8194C13.9237 5.08897 13.4502 5.05255 13.1806 4.73806C12.9111 4.42357 12.9475 3.9501 13.262 3.68053L15.012 2.18056C15.2928 1.93981 15.7073 1.93981 15.9881 2.18056L17.7381 3.68053C18.0526 3.9501 18.089 4.42357 17.8194 4.73806C17.5499 5.05255 17.0764 5.08897 16.7619 4.8194L15.5 3.73778L14.2382 4.8194ZM10.0001 3.74997C9.69555 3.74997 9.42125 3.93413 9.30594 4.21599L4.80604 15.2158C4.6492 15.5992 4.83285 16.0371 5.21621 16.194C5.59958 16.3508 6.0375 16.1672 6.19433 15.7838L7.64002 12.2499H12.3602L13.8059 15.7838C13.9627 16.1672 14.4006 16.3508 14.784 16.194C15.1673 16.0371 15.351 15.5992 15.1941 15.2158L10.6942 4.21599C10.5789 3.93413 10.3046 3.74997 10.0001 3.74997ZM10.0001 6.48075L11.7465 10.7499H8.25364L10.0001 6.48075Z" fill="#212121"/>
</svg>

<svg xmlns="http://www.w3.org/2000/svg" width="20" height="20"><path d="M14.238 4.82a.75.75 0 0 1-.976-1.14l1.75-1.5a.75.75 0 0 1 .976 0l1.75 1.5a.75.75 0 1 1-.976 1.14L15.5 3.737l-1.262 1.081ZM10 3.75a.75.75 0 0 0-.694.466l-4.5 11a.75.75 0 0 0 1.388.568L7.64 12.25h4.72l1.446 3.534a.75.75 0 1 0 1.388-.568l-4.5-11A.75.75 0 0 0 10 3.75Zm0 2.73 1.746 4.27H8.255L10 6.48Z"/></svg>
